icons/bank-15.svg

<?xml version="1.0" encoding="UTF-8" standalone="no"?>
<!-- Generator: Adobe Illustrator 17.1.0, SVG Export Plug-In . SVG Version: 6.00 Build 0)  -->

<svg
   xmlns:dc="http://purl.org/dc/elements/1.1/"
   xmlns:cc="http://creativecommons.org/ns#"
   xmlns:rdf="http://www.w3.org/1999/02/22-rdf-syntax-ns#"
   xmlns:svg="http://www.w3.org/2000/svg"
   xmlns="http://www.w3.org/2000/svg"
   xmlns:sodipodi="http://sodipodi.sourceforge.net/DTD/sodipodi-0.dtd"
   xmlns:inkscape="http://www.inkscape.org/namespaces/inkscape"
   version="1.1"
   id="svg4619"
   inkscape:version="0.91+devel+osxmenu r12911"
   sodipodi:docname="bank-15.svg"
   x="0px"
   y="0px"
   height='15'
   width='15'
   viewBox="0 0 15 15"
   enable-background="new 0 0 15 15"
   xml:space="preserve"><metadata
     id="metadata29"><rdf:RDF><cc:Work
         rdf:about=""><dc:format>image/svg+xml</dc:format><dc:type
           rdf:resource="http://purl.org/dc/dcmitype/StillImage" /><dc:title /></cc:Work></rdf:RDF></metadata><defs
     id="defs27" /><sodipodi:namedview
     inkscape:window-width="1215"
     inkscape:pageopacity="0"
     inkscape:window-height="750"
     inkscape:current-layer="svg4619"
     inkscape:document-units="px"
     inkscape:pageshadow="2"
     id="namedview3370"
     gridtolerance="10"
     borderopacity="1"
     bordercolor="#666666"
     inkscape:cx="5.6901915"
     guidetolerance="10"
     showgrid="false"
     pagecolor="#ffffff"
     inkscape:cy="9.6990284"
     objecttolerance="10"
     inkscape:zoom="16"
     inkscape:snap-bbox="true"
     inkscape:bbox-paths="true"
     inkscape:bbox-nodes="true"
     inkscape:snap-bbox-edge-midpoints="true"
     inkscape:snap-bbox-midpoints="true"
     inkscape:object-paths="true"
     inkscape:snap-intersection-paths="true"
     inkscape:object-nodes="true"
     inkscape:snap-smooth-nodes="true"
     inkscape:window-x="0"
     inkscape:window-y="0"
     inkscape:window-maximized="0"><inkscape:grid
       type="xygrid"
       id="grid3446"
       spacingx="0.5"
       spacingy="0.5"
       color="#d1001a"
       opacity="0.1254902"
       empspacing="2" /></sodipodi:namedview><g
     id="g9" /><path
     style="opacity:1;fill:#000000;fill-opacity:1;stroke:none;stroke-width:2.63156796;stroke-linecap:round;stroke-linejoin:round;stroke-miterlimit:4;stroke-dasharray:none;stroke-dashoffset:0;stroke-opacity:1;marker:none"
     d="M 1 3 C 0.446 3 0 3.446 0 4 L 0 11 C 0 11.554 0.446 12 1 12 L 14 12 C 14.554 12 15 11.554 15 11 L 15 4 C 15 3.446 14.554 3 14 3 L 1 3 z M 1 4 L 2.5 4 A 0.50000001 0.50000001 0 0 1 3 4.5 A 0.50000001 0.50000001 0 0 1 2.5 5 A 0.50000001 0.50000001 0 0 1 2 4.5 L 1.5 5 A 0.50000001 0.50000001 0 0 1 2 5.5 A 0.50000001 0.50000001 0 0 1 1.5 6 A 0.50000001 0.50000001 0 0 1 1 5.5 L 1 4 z M 7.5 4 A 2.5 3.5 0 0 1 10 7.5 A 2.5 3.5 0 0 1 7.5 11 A 2.5 3.5 0 0 1 5 7.5 A 2.5 3.5 0 0 1 7.5 4 z M 12.5 4 L 14 4 L 14 5.5 A 0.50000001 0.50000001 0 0 1 13.5 6 A 0.50000001 0.50000001 0 0 1 13 5.5 A 0.50000001 0.50000001 0 0 1 13.5 5 L 13 4.5 A 0.50000001 0.50000001 0 0 1 12.5 5 A 0.50000001 0.50000001 0 0 1 12 4.5 A 0.50000001 0.50000001 0 0 1 12.5 4 z M 7.5 5.5 C 7.1770327 5.5 6.966399 5.6087603 6.8183594 5.75 L 8.1816406 5.75 C 8.033601 5.6087603 7.8229673 5.5 7.5 5.5 z M 6.625 6 C 6.5795175 6.0909651 6.5633275 6.1710782 6.5449219 6.25 L 8.4550781 6.25 C 8.4366725 6.1710782 8.4204825 6.0909651 8.375 6 L 6.625 6 z M 6.5 6.5 L 6.5 6.75 L 8.5 6.75 L 8.5 6.5 L 6.5 6.5 z M 6.5 7 L 6.5 7.25 L 8.5 7.25 L 8.5 7 L 6.5 7 z M 6.5 7.5 L 6.5 7.75 L 8.5 7.75 L 8.5 7.5 L 6.5 7.5 z M 6.5 8 L 6.25 8.25 L 8.25 8.25 L 8.5 8 L 6.5 8 z M 6 8.5 C 6 8.5 6.0352918 8.6023683 6.1015625 8.75 L 8.375 8.75 L 8 8.5 L 6 8.5 z M 1.5 9 A 0.50000001 0.50000001 0 0 1 2 9.5 A 0.50000001 0.50000001 0 0 1 1.5 10 L 2 10.5 A 0.50000001 0.50000001 0 0 1 2.5 10 A 0.50000001 0.50000001 0 0 1 3 10.5 A 0.50000001 0.50000001 0 0 1 2.5 11 L 1 11 L 1 9.5 A 0.50000001 0.50000001 0 0 1 1.5 9 z M 6.2382812 9 C 6.2842136 9.0856111 6.3143577 9.1590366 6.375 9.25 L 8.6425781 9.25 C 8.7092261 9.1120566 8.75 9 8.75 9 L 6.2382812 9 z M 13.5 9 A 0.50000001 0.50000001 0 0 1 14 9.5 L 14 11 L 12.5 11 A 0.50000001 0.50000001 0 0 1 12 10.5 A 0.50000001 0.50000001 0 0 1 12.5 10 A 0.50000001 0.50000001 0 0 1 13 10.5 L 13.5 10 A 0.50000001 0.50000001 0 0 1 13 9.5 A 0.50000001 0.50000001 0 0 1 13.5 9 z M 6.5664062 9.5 C 6.6450531 9.5912012 6.731089 9.6763088 6.8261719 9.75 L 8.2460938 9.75 C 8.3461904 9.6727435 8.4338086 9.5882551 8.5 9.5 L 6.5664062 9.5 z "
     id="rect5668" /></svg>

<?xml version="1.0" encoding="utf-8"?>
<!-- Generator: Adobe Illustrator 19.2.1, SVG Export Plug-In . SVG Version: 6.00 Build 0)  -->
<!DOCTYPE svg PUBLIC "-//W3C//DTD SVG 1.1//EN" "http://www.w3.org/Graphics/SVG/1.1/DTD/svg11.dtd">
<svg version="1.1"
	 id="svg4619" inkscape:version="0.91+devel+osxmenu r12911" sodipodi:docname="bank-15.svg" xmlns:cc="http://creativecommons.org/ns#" xmlns:dc="http://purl.org/dc/elements/1.1/" xmlns:inkscape="http://www.inkscape.org/namespaces/inkscape" xmlns:rdf="http://www.w3.org/1999/02/22-rdf-syntax-ns#" xmlns:sodipodi="http://sodipodi.sourceforge.net/DTD/sodipodi-0.dtd" xmlns:svg="http://www.w3.org/2000/svg"
	 xmlns="http://www.w3.org/2000/svg" xmlns:xlink="http://www.w3.org/1999/xlink" x="0px" y="0px" width="15px" height="15px"
	 viewBox="0 0 15 15" style="enable-background:new 0 0 15 15;" xml:space="preserve">
<path id="rect5668" d="M1,3C0.446,3,0,3.446,0,4v7c0,0.554,0.446,1,1,1h13c0.554,0,1-0.446,1-1V4c0-0.554-0.446-1-1-1H1z M1,4h1.5
	C2.7761,4,3,4.2239,3,4.5S2.7761,5,2.5,5S2,4.7761,2,4.5L1.5,5C1.7761,5,2,5.2239,2,5.5S1.7761,6,1.5,6S1,5.7761,1,5.5V4z M7.5,4
	C8.8807,4,10,5.567,10,7.5l0,0C10,9.433,8.8807,11,7.5,11S5,9.433,5,7.5S6.1193,4,7.5,4z M12.5,4H14v1.5C14,5.7761,13.7761,6,13.5,6
	S13,5.7761,13,5.5S13.2239,5,13.5,5L13,4.5C13,4.7761,12.7761,5,12.5,5S12,4.7761,12,4.5S12.2239,4,12.5,4z M7.5,5.5
	c-0.323,0-0.5336,0.1088-0.6816,0.25h1.3633C8.0336,5.6088,7.823,5.5,7.5,5.5z M6.625,6C6.5795,6.091,6.5633,6.1711,6.5449,6.25
	h1.9102C8.4367,6.1711,8.4205,6.091,8.375,6H6.625z M6.5,6.5v0.25h2V6.5H6.5z M6.5,7v0.25h2V7H6.5z M6.5,7.5v0.25h2V7.5H6.5z M6.5,8
	L6.25,8.25h2L8.5,8H6.5z M6,8.5c0,0,0.0353,0.1024,0.1016,0.25H8.375L8,8.5H6z M1.5,9C1.7761,9,2,9.2239,2,9.5S1.7761,10,1.5,10
	L2,10.5C2,10.2239,2.2239,10,2.5,10S3,10.2239,3,10.5S2.7761,11,2.5,11H1V9.5C1,9.2239,1.2239,9,1.5,9z M6.2383,9
	C6.2842,9.0856,6.3144,9.159,6.375,9.25h2.2676C8.7092,9.1121,8.75,9,8.75,9H6.2383z M13.5,9C13.7761,9,14,9.2239,14,9.5V11h-1.5
	c-0.2761,0-0.5-0.2239-0.5-0.5s0.2239-0.5,0.5-0.5s0.5,0.2239,0.5,0.5l0.5-0.5C13.2239,10,13,9.7761,13,9.5S13.2239,9,13.5,9z
	 M6.5664,9.5c0.0786,0.0912,0.1647,0.1763,0.2598,0.25h1.4199C8.3462,9.6727,8.4338,9.5883,8.5,9.5H6.5664z"/>
</svg>
